packages/ffe-icons/icons/open/500/sm/speaker_notes.svg

<svg xmlns="http://www.w3.org/2000/svg" height="20" viewBox="0 -960 960 960" width="20"><path d="M275.789-384Q291-384 301.5-394.289q10.5-10.29 10.5-25.5Q312-435 301.711-445.5q-10.29-10.5-25.5-10.5Q261-456 250.5-445.711q-10.5 10.29-10.5 25.5Q240-405 250.289-394.5q10.29 10.5 25.5 10.5Zm0-132Q291-516 301.5-526.289q10.5-10.29 10.5-25.5Q312-567 301.711-577.5q-10.29-10.5-25.5-10.5Q261-588 250.5-577.711q-10.5 10.29-10.5 25.5Q240-537 250.289-526.5q10.29 10.5 25.5 10.5Zm0-132Q291-648 301.5-658.289q10.5-10.29 10.5-25.5Q312-699 301.711-709.5q-10.29-10.5-25.5-10.5Q261-720 250.5-709.711q-10.5 10.29-10.5 25.5Q240-669 250.289-658.5q10.29 10.5 25.5 10.5ZM420-384h168q15.3 0 25.65-10.289 10.35-10.29 10.35-25.5Q624-435 613.65-445.5 603.3-456 588-456H420q-15.3 0-25.65 10.289-10.35 10.29-10.35 25.5Q384-405 394.35-394.5 404.7-384 420-384Zm0-132h264q15.3 0 25.65-10.289 10.35-10.29 10.35-25.5Q720-567 709.65-577.5 699.3-588 684-588H420q-15.3 0-25.65 10.289-10.35 10.29-10.35 25.5Q384-537 394.35-526.5 404.7-516 420-516Zm0-132h264q15.3 0 25.65-10.289 10.35-10.29 10.35-25.5Q720-699 709.65-709.5 699.3-720 684-720H420q-15.3 0-25.65 10.289-10.35 10.29-10.35 25.5Q384-669 394.35-658.5 404.7-648 420-648ZM231.869-231.869l-73.317 73.317q-19.748 19.748-45.215 8.981-25.468-10.766-25.468-38.451V-789.13q0-34.483 24.259-58.742t58.742-24.259h618.26q34.483 0 58.742 24.259t24.259 58.742v474.26q0 34.483-24.259 58.742t-58.742 24.259H231.869Zm-30-83.001H789.13v-474.26H170.87v505.499l30.999-31.239Zm-30.999 0v-474.26 474.26Z"/></svg>

<svg xmlns="http://www.w3.org/2000/svg" height="20" viewBox="0 -960 960 960" width="20"><path d="M275.79-384q15.21 0 25.71-10.29t10.5-25.5q0-15.21-10.29-25.71t-25.5-10.5q-15.21 0-25.71 10.29t-10.5 25.5q0 15.21 10.29 25.71t25.5 10.5Zm0-132q15.21 0 25.71-10.29t10.5-25.5q0-15.21-10.29-25.71t-25.5-10.5q-15.21 0-25.71 10.29t-10.5 25.5q0 15.21 10.29 25.71t25.5 10.5Zm0-132q15.21 0 25.71-10.29t10.5-25.5q0-15.21-10.29-25.71t-25.5-10.5q-15.21 0-25.71 10.29t-10.5 25.5q0 15.21 10.29 25.71t25.5 10.5ZM420-384h168q15.3 0 25.65-10.29Q624-404.58 624-419.79t-10.35-25.71Q603.3-456 588-456H420q-15.3 0-25.65 10.29Q384-435.42 384-420.21t10.35 25.71Q404.7-384 420-384Zm0-132h264q15.3 0 25.65-10.29Q720-536.58 720-551.79t-10.35-25.71Q699.3-588 684-588H420q-15.3 0-25.65 10.29Q384-567.42 384-552.21t10.35 25.71Q404.7-516 420-516Zm0-132h264q15.3 0 25.65-10.29Q720-668.58 720-683.79t-10.35-25.71Q699.3-720 684-720H420q-15.3 0-25.65 10.29Q384-699.42 384-684.21t10.35 25.71Q404.7-648 420-648ZM231.87-231.87l-73.32 73.32q-19.75 19.75-45.21 8.98-25.47-10.77-25.47-38.45v-601.11q0-34.48 24.26-58.74 24.26-24.26 58.74-24.26h618.26q34.48 0 58.74 24.26 24.26 24.26 24.26 58.74v474.26q0 34.48-24.26 58.74-24.26 24.26-58.74 24.26H231.87Zm-30-83h587.26v-474.26H170.87v505.5l31-31.24Zm-31 0v-474.26 474.26Z"/></svg>
